public/formular-icons/greece/upper-gamma.svg

<svg style="vertical-align:0" xmlns="http://www.w3.org/2000/svg" width="1.414ex" height="1.538ex" viewBox="0 -680 625 680" xmlns:xlink="http://www.w3.org/1999/xlink"><defs><path id="a" d="M128 619q-7 7-11 9t-16 3-43 3H25v46h529v-4q2-6 14-116t14-116v-4h-40v4q0 1-4 34t-15 67-31 53q-38 36-143 36h-15q-70 0-85-1t-16-12q-1-3-1-282l1-278q7-7 12-9t25-4 63-2h27V0h-12q-24 3-166 3Q51 3 36 0H25v46h33q42 1 51 3t19 12v558Z"/></defs><g stroke="currentColor" fill="currentColor" stroke-width="0"><use data-c="393" xlink:href="#a" transform="scale(1 -1)"/></g></svg>

<svg style="vertical-align: 0" xmlns="http://www.w3.org/2000/svg" width="1.414ex" height="1.538ex" role="img" focusable="false" viewBox="0 -680 625 680" xmlns:xlink="http://www.w3.org/1999/xlink"><defs><path id="MJX-89-TEX-N-393" d="M128 619Q121 626 117 628T101 631T58 634H25V680H554V676Q556 670 568 560T582 444V440H542V444Q542 445 538 478T523 545T492 598Q454 634 349 634H334Q264 634 249 633T233 621Q232 618 232 339L233 61Q240 54 245 52T270 48T333 46H360V0H348Q324 3 182 3Q51 3 36 0H25V46H58Q100 47 109 49T128 61V619Z"></path></defs><g stroke="currentColor" fill="currentColor" stroke-width="0" transform="scale(1,-1)"><g data-mml-node="math"><g data-mml-node="mi"><use data-c="393" xlink:href="#MJX-89-TEX-N-393"></use></g></g></g></svg>
